X: 32800
T: Poor Man's Fortune, The
R: reel
M: 4/4
K: Dmixolydian
FDEF D2 de|fde^c d^cAB|c2 dc BG G2|EDCD EAGE|
FDEF D2 de|fde^c d^cAB|c2 dc BG G2|1 EDCE D2 AG:|2 EDCE DGAB||
|:c2 gc acgc|Gceg agfe|d2 ad bdad|Adfa bafd|
c2 gc acgc|afge defg|afge fded|1 c3 d cBAB:|2 c3 d cBAG||

